src/symbols/av-symbol/23EF.svg

<svg id="emoji" viewBox="0 0 72 72" xmlns="http://www.w3.org/2000/svg">
  <g id="grid">
    <path fill="#b3b3b3" d="M68,4V68H4V4H68m4-4H0V72H72V0Z"/>
    <path fill="none" stroke="#00a5ff" stroke-miterlimit="10" stroke-width="0.1" d="M12.923,10.9583H59.0769A1.9231,1.9231,0,0,1,61,12.8814V59.0352a1.9231,1.9231,0,0,1-1.9231,1.9231H12.9231A1.9231,1.9231,0,0,1,11,59.0352V12.8813A1.923,1.923,0,0,1,12.923,10.9583Z"/>
    <rect x="16" y="4" rx="2.2537" width="40" height="64" fill="none" stroke="#00a5ff" stroke-miterlimit="10" stroke-width="0.1"/>
    <rect x="16" y="4" rx="2.2537" width="40" height="64" transform="translate(72) rotate(90)" fill="none" stroke="#00a5ff" stroke-miterlimit="10" stroke-width="0.1"/>
    <circle cx="36" cy="36" r="29" fill="none" stroke="#00a5ff" stroke-miterlimit="10" stroke-width="0.1"/>
  </g>
  <g id="color"/>
  <g id="hair"/>
  <g id="skin"/>
  <g id="skin-shadow"/>
  <g id="line">
    <path fill="none" stroke="#000000" stroke-linecap="round" stroke-linejoin="round" stroke-miterlimit="10" stroke-width="2" d="M14.1579,54.7165C14.5789,54.8866,15.0526,55,15.5263,55c0.7368,0,1.4737-0.2835,2.1053-0.7372l26.0526-15.2541l0.2632-0.2835 C44.6316,37.988,45,37.0807,45,36.06s-0.3684-1.9847-1.0526-2.6652l-0.2632-0.2835L17.6316,17.7438 c-0.9474-0.7939-2.3158-0.964-3.4737-0.4537C12.8421,17.8572,12,19.2749,12,20.8059v30.3947 C12,52.7317,12.8421,54.1494,14.1579,54.7165z"/>
    <line x1="60" x2="60" y1="17" y2="55" fill="none" stroke="#000000" stroke-linecap="round" stroke-linejoin="round" stroke-miterlimit="10" stroke-width="2"/>
    <line x1="52" x2="52" y1="17" y2="55" fill="none" stroke="#000000" stroke-linecap="round" stroke-linejoin="round" stroke-miterlimit="10" stroke-width="2"/>
  </g>
</svg>

<svg viewBox="0 0 72 72" xmlns="http://www.w3.org/2000/svg"><path fill="#b3b3b3" d="M68 4v64H4V4h64m4-4H0v72h72V0z"/><path fill="none" stroke="#00a5ff" stroke-miterlimit="10" stroke-width=".1" d="M12.923 10.958h46.154A1.923 1.923 0 0161 12.881v46.154a1.923 1.923 0 01-1.923 1.923H12.923A1.923 1.923 0 0111 59.035V12.881a1.923 1.923 0 011.923-1.923z"/><rect x="16" y="4" rx="2.254" width="40" height="64" fill="none" stroke="#00a5ff" stroke-miterlimit="10" stroke-width=".1"/><rect x="16" y="4" rx="2.254" width="40" height="64" transform="rotate(90 36 36)" fill="none" stroke="#00a5ff" stroke-miterlimit="10" stroke-width=".1"/><circle cx="36" cy="36" r="29" fill="none" stroke="#00a5ff" stroke-miterlimit="10" stroke-width=".1"/><path d="M14.158 54.717c.42.17.895.283 1.368.283.737 0 1.474-.283 2.106-.737l26.052-15.254.263-.284C44.632 37.988 45 37.081 45 36.06s-.368-1.985-1.053-2.665l-.263-.284-26.052-15.367c-.948-.794-2.316-.964-3.474-.454-1.316.567-2.158 1.985-2.158 3.516V51.2c0 1.53.842 2.948 2.158 3.516zM60 17v38m-8-38v38" stroke-linecap="round" stroke-miterlimit="10" stroke-width="6" stroke="#fff" fill="none" stroke-linejoin="round"/><path d="M14.158 54.717c.42.17.895.283 1.368.283.737 0 1.474-.283 2.106-.737l26.052-15.254.263-.284C44.632 37.988 45 37.081 45 36.06s-.368-1.985-1.053-2.665l-.263-.284-26.052-15.367c-.948-.794-2.316-.964-3.474-.454-1.316.567-2.158 1.985-2.158 3.516V51.2c0 1.53.842 2.948 2.158 3.516zM60 17v38m-8-38v38" fill="none" stroke="#000" stroke-linecap="round" stroke-linejoin="round" stroke-miterlimit="10" stroke-width="2"/></svg>
